X:28
T:Slow March
S:Ashworth's Instructor, p. 38
M:C
%%MIDI program 72
%%MIDI transpose 8
L:1/8
K:D
A2|d2 d>d d>AF>A|B2 A>A A2 df|e2 e>e e>ce>g|f2 d>d d2 a>f|e2 d2 c2 a>f|
e2 d2 c2 a>f|f>ef>d c2 B3/2A/B/|A2 A>A A2::(A/B/c/d/)|e2 e>e e>ce>g|f2 f>f f>df>a|
g>ga>g f>fg>f|e2 e>e e2 c2|d2 d>d d>AF>A|B3/2A/B/ A>A A>ef>g|f>fg>e d2 Tc3/2B/c/|d2 d>d d2:|]
